X:1
T:Il non poter veder
T:Il non poter veder
T:Jhan Gero
T:Source : Trium vocum cantiones---Nürnberg---J.Petreius---1541. Editor : André Vierendeels (24/09/16).
T:Notes : Original clefs : C2, C4, F4 Editorial accidentals above the staff Original note values have been halved
T:©
T:©
T:©
T:©
T:©
C:Jhan Gero
Z:©
%%score [ 1 2 3 ]
L:1/8
Q:1/4=120
M:2/2
K:C
V:1 treble nm="Alto" snm="A"
V:2 treble-8 nm="Tenor" snm="T"
V:3 bass nm="Bass" snm="B"
V:1
 z8 | A4 A2 E2 | G2 A2 E2 E2 | D2 C2 B,4 | A,2 C2 B,2 A,2- | A,2 G,2 A,4 | A4 c3 c | B2 G2 A2 c2 | %8
w: |Il non po-|ter ve- der il|di- vin vol-|to, il di- vin|_ vol- to,|del ce- le-|ste no- tor qual|
 B2 A4 G2 | A2 E2 F2 E2 | D2 F2 E2 D2 | C2 C2 D2 CD | ED F4 E2 | F2 z F F2 F2 | E2 F2 GFED | %15
w: e l'in- fer-|no, qual si ch'in|sem- pi- ter- no,|in sem- pi- ter- *||no, l'al- ma re-|sta cru- ciat' _ _ _|
 C2 D2 D2 D2 | C2 D2 EDCB, | A,2 F4 E2- | ED D4 C2 | D8- | D4 A4 | A2 E2 G2 A2 | E2 E2 D2 C2 | %23
w: _ l'al- ma re-|sta cru- cia- * * *|t'in pe- n'e|_ _ do- *|glia,|_ et|io che pri- vo|son del vol- to|
 B,4 A,2 C2 | B,2 A,3 G, G,2 | A,4 A4 | c3 c B2 G2 | A2 c2 B2 A2- | A2 G2 A4- | A4 z2 D2 | %30
w: di- vo, vol-|to di- * *|vo, de-|li- a Phe- ni-|ce mi- * *|* * a,|_ pro-|
 A2 A2 G2 F2 | E3 F G2 A2- | A2 G2 A4 | z2 B2 c3 B | A2 G2 A2 D2 | F2 E2 D2 C2 | D2 F2 E2 D2- | %37
w: vo l'in- fer- n'in|an- ci ch'io mi|_ spo- glia,|del cor _|_ po- reo vel',|e mor- to vi-|vo, e mor- to|
 D2 C2 D2 D2- | D2 D2 F4 | C4 E4 | G2 G2 D3 E | FG A4 A2 | G2 A3 G F2- | F2 E2 F4 | z2 D2 D2 D2 | %45
w: _ vi- vo, O|_ ab- sen-|tia che|l'in- fer- * *|* * * no|pro- var _ fa-|* * i,|in mort' e'in|
 E4 C2 F2 | F2 E3 D D2- |"^#" D2 C2 D4 | z2 D2 D2 D2 | E4 C2 F2 | F2 E3 D D2- |"^#" D2 C2 D4- | %52
w: vi- ta sem-|pi- ter- ni gua-|* * i,|in mort' e'in|vi- ta sem-|pi- ter- ni gua-|* * i.|
 D8 |] %53
w: _|
V:2
 d4 d2 A2 | c2 d2 ABcd | e2 c4 B2- | BA A4 G2 | A3 G F2 E2- | E2 D2 E2 e2 | f3 f e2 c2 | %7
w: Il non po-|ter ve- der _ _ _|_ il di-|* vin vol- *||* * to, del|ce- le- ste no-|
 d2 e2 c2 c2 | dcBA B4 | A6 A2 | _B2 A2 G2 G2 | A2 G2 F2 A2 | G2 F2 G4 | F4 z2 A2 | A2 A2 G2 G2 | %15
w: tor quel e l'in-|fer- * * * *|no, qual|si ch'in sem- pi-|ter- no, in sem-|pi- ter- *|no, l'al-|ma re- sta cru-|
 AGFE D2 A2- | A2 GF G2 A2 | F3 G A2 G2- | G2 F2 E4 | D4 z2 d2 | d2 A2 c2 d2 | ABcd e2 c2- | %22
w: ciat' _ _ _ _ in|_ _ _ pe- *|* * ne,- e|_ do- *|glia, et|io che pri- vo|son- * * * * del|
 c2 B3 A A2- | A2 G2 A3 G | F2 E4 D2 | E2 e2 f3 f | e2 c2 d2 e2 | cdec dcBA | B4 A2 A2 | %29
w: _ vol- to di-|* * vo, del|vol- to di-|vo, de la Phe-|ni- ce mi- *||* a, pro-|
 d2 d2 c2 B2 | A3 B c2 d2- | d2 c2 B2 A2 | e4 d2 c2 | B4 A3 G | F2 E2 z2 B2 | c3 B A2 G2 | %36
w: vo l'in- fer- n'in-|an- ci ch'io mi|_ spo- gli- a,|ch'io mi spo-||gli- a, del|cor- po- re- o|
 A2 F2 G2 F2 | E4 D4 | z4 A4- | A2 A2 c4 | G4 B4 | d2 d2 A2 c2- | cBAG F2 F2 | G4 F2 A2 | %44
w: vel' et mor- to|vi- vo,|O|_ ab- sen-|tia che|l'in- fer- no pro-|* * * * * var|fa- i, in|
 A2 A2 B4 | G2 c3 B AG | F2 A2 GFED | E4 D2 A2 | A2 A2 B4 | G2 c3 B AG | F2 A2 G2 F2 | E4 D4- | %52
w: mort' e'n vi-|ta, sem- pi- ter- *|* ni gua- * * *|* i, in|mort' e'n vi-|ta sem- pi- ter- *|* * * ni|gua- i.|
 D8 |] %53
w: _|
V:3
 z8 | z8 | z2 A,2 A,2 E,2 | G,2 A,2 E,2 E,2 |"^#" F,3 E, D,2 C,2 | B,,4 A,,4 | z2 D,2 A,3 A, | %7
w: ||Il non po-|ter ve- der il|di- * * vin|vol- to,|del ce- le-|
 G,2 E,2 F,2 A,2 | G,2 A,2 E,4 | A,,8 | z4 E,4 | F,2 E,2 D,2 F,2 | E,2 D,2 C,4 | z2 D,2 D,2 D,2 | %14
w: ste no- tor quel|e l'in- fer-|no,|qual|si ch'in sem- pi-|ter _ no,|l'al- ma re-|
 C,2 D,2 E,D,C,B,, | A,,2 D,2 F,4- | F,2 E,D, C,2 C,2 | D,C,D,E, F,2 C,2- | C,2 D,2 A,,4 | D,8- | %20
w: sta cru- ciat' _ _ _|in pe- *|* * * ne, et|do- * * * * *||glia,|
 D,4 z4 | z4 z2 A,2 | A,2 E,2 G,2 A,2 | E,4 F,3 E, | D,2 C,2 B,,4 | A,,4 z2 D,2 | A,3 A, G,2 E,2 | %27
w: _|et|io che pri- vo|sol del _|_ _ vol-|to, de|la _ _ Phe-|
 F,2 A,2 G,2 F,2 | E,4 F,4 | D,3 E, F,2 G,2 | D,4 z2 D,2 | A,2 A,2 G,2 F,2 | E,2 E,2 F,2 A,2 | %33
w: ni- ce mi- *|||a, pro-|vo l'in- fer- n'in-|an- ci ch'io mi|
 A,2 G,2 A,2 A,2 | C3 B, A,2 G,2 | A,3 G, F,2 E,2 | D,2 D,2 C,2 D,2 | A,,4 z4 | D,6 D,2 | F,4 C,4 | %40
w: spo- * glia, del|cor- * * po-|re- o ve- lo,|e mor- to vi-|vo,|O ab-|sen- tia|
 E,4 G,2 G,2 | D,3 E, F,4 | E,2 F,2 D,4 | C,4 z2 D,2 | D,2 D,2 G,4 | C,4 F,3 E, | %46
w: che l'in- fer-|no _ _|pro- var fa-|i, in|mort' e'in vi-|ta, sem- pi-|
 D,2 A,,2 C,2 D,2 | A,,4 z2 D,2 | D,2 D,2 G,4 | C,4 F,3 E, | D,2 A,,2 C,2 D,2 | A,,4 D,4- | %52
w: ter- ni gua- *|i, in|mort' e'in vi-|ta, sem- pi-|ter- ni gua- *|* i.|
 D,4 z4 |] %53
w: _|

